data/playwrite-au-vic.svg

<svg width="131.64" height="27.048" viewBox="0 0 131.64 27.048" xmlns="http://www.w3.org/2000/svg"><path transform="translate(0 19.992) scale(.014 -.014)" d="m107-14q-48 0-39 30l309 954q5 14 17 21t34 7h176q100 0 166.5-24t100-71.5 33.5-120.5q0-84-31.5-148t-90-109-140-73.5-181.5-41.5q-43-5-90-7.5t-90-3.5l-125-385q-5-14-15.5-21t-33.5-7zm199 493q27 0 58 1.5t62 4.5 59 6q106 17 179 53t111.5 92.5 38.5 134.5q0 52-23.5 84.5t-72.5 47.5-128 15h-142z"/><path transform="translate(10.878 19.992) scale(.014 -.014)" d="m129-15q-58 0-74.5 44.5t10.5 127.5l271 826q7 20 16.5 26t28.5 6q31 0 39.5-9.5t1.5-29.5l-285-868q-7-23-4-35.5t17-12.5q11 0 21 6.5t21 18.5 23 28q8 10 16.5 12t21.5-7q16-10 18.5-20t-3.5-21q-17-29-39-50t-46.5-31.5-53.5-10.5z"/><path transform="translate(15.064 19.992) scale(.014 -.014)" d="m159-17q-37 0-64.5 18.5t-42.5 53-15 80.5 13.5 98 41 102.5 67 92 91.5 66.5 117 25q30 0 62-8.5t61-23.5l1 4q6 16 15.5 20t27.5 4q31 0 39.5-9.5t1.5-29.5l-123-369q-5-16-6-26.5t3-15.5 13-5q11 0 22 7t22.5 19 23.5 27q8 10 16.5 12t21.5-7q16-10 18.5-20t-2.5-21q-9-15-28.5-37.5t-47.5-38.5-63-16-53 14-23.5 35.5-2.5 46.5 9 48q1 2 1.5 4.5t1.5 5.5q-40-54-78.5-89t-74-51-66.5-16zm-31 167q0-27 7-46.5t20.5-30 31.5-10.5q34 0 76 32.5t87 95 92 151.5l25 76q-31 13-58 17.5t-51 4.5q-45 0-82-19.5t-64.5-52-46-71.5-28-77.5-9.5-69.5z"/><path transform="translate(23.772 19.992) scale(.014 -.014)" d="m161-15q-49 0-76.5 23t-31 67.5 16.5 106.5l100 301q7 20 16.5 26t28.5 6q31 0 39.5-9.5t1.5-29.5l-104-311q-10-29-11.5-52t10.5-36 41-13q32 0 69.5 25t76.5 70.5 76.5 107 69.5 135.5l26 81q7 20 16.5 26t28.5 6q31 0 39.5-9.5t1.5-29.5l-245-751q-30-91-63-144.5t-79-76.5-115-23q-37 0-69.5 9.5t-58 26-44.5 35.5q-14 15-18 28.5t17 29.5q18 14 29 14.5t25-14.5q23-25 54.5-38t69.5-13q44 0 73.5 16.5t51.5 53.5 42 99l139 431q-28-42-58-74.5t-61-54.5-62.5-33.5-62.5-11.5z"/><path transform="translate(32.564 19.992) scale(.014 -.014)" d="m172-19q-46 0-72 19t-35.5 51-5.5 71.5 18 80.5l92 281q5 16 14 24t32 8q32 0 39.5-9.5t1.5-28.5l-96-292q-10-32-14-60.5t6.5-46.5 43.5-18q25 0 52 16.5t52 45 48 65 40 76.5l71 220q6 16 14.5 24t30.5 8q33 0 39.5-9.5t0.5-28.5l-83-266q-5-20-11.5-45.5t-6.5-50 12-40 43-15.5q34 0 66.5 21t60 56 48 78 32 88.5 11.5 85.5q0 11-0.5 23.5t-2 25.5-3.5 26q-3 18 0.5 30t13.5 18 25 6q19 0 30-11t16-37q3-11 4.5-22.5t2-23.5 0.5-25q0-52-15-109t-43.5-112-68.5-100-89.5-71.5-107.5-26.5q-45 0-72 16.5t-38.5 43.5-13.5 59q-23-37-51.5-63.5t-61-41-69.5-14.5z"/><path transform="translate(44.548 19.992) scale(.014 -.014)" d="m81-15q-16 0-29.5 7t-7.5 26l128 395q4 13 0 21.5t-16 8.5q-11 0-23-6.5t-27.5-22-36.5-42.5q-12-13-21.5-16t-26.5 5q-19 11-18 23.5t8 23.5q22 31 45.5 56t52.5 39.5 65 14.5q35 0 53-12t24-31 4.5-41.5-5.5-42.5l-16-48q26 43 53 75.5t53 55 49 34 43 11.5q14 0 21-7t6-31q0-25 3-41.5t10-25 19-8.5q22 0 49 13.5t74 44.5q10 7 20.5 2.5t17-15.5 7-23.5-10.5-19.5q-45-36-84-53.5t-80-17.5q-21 0-41.5 8.5t-34 29-14.5 56.5q-23-13-52.5-41.5t-61-70-62.5-95-57-116.5l-32-97q-4-13-14.5-19.5t-33.5-6.5z"/><path transform="translate(52.262 19.992) scale(.014 -.014)" d="m127-15q-59 0-75.5 44.5t10.5 127.5l107 326q7 20 16.5 26t28.5 6q31 0 39.5-9.5t1.5-29.5l-120-368q-8-23-5-35.5t17-12.5q11 0 21 6.5t21 18.5 24 28q8 10 16.5 12t21.5-7q16-10 18.5-20t-3.5-21q-18-29-39.5-50t-46.5-31.5-53-10.5zm149 684q-20 0-34 13t-14 38q0 27 17.5 51t54.5 24q21 0 35-12.5t14-38.5q0-27-17.5-51t-55.5-24z"/><path transform="translate(56.462 19.992) scale(.014 -.014)" d="m158-15q-44 0-67 20.5t-25 59 15 91.5l86 264h-77q-11 0-15 10t1 30q6 20 16 30t21 10h80l65 198q6 20 15.5 26t29.5 6q31 0 39.5-9.5t1.5-29.5l-63-191h126q11 0 15.5-9.5t-1.5-30.5q-5-19-15-29.5t-21-10.5h-130l-97-294q-11-34-6-50t24-16q24 0 50 18.5t51 50.5q8 9 17.5 11t24.5-8q15-9 17-18.5t-3-18.5q-11-20-35.5-46t-59-45-80.5-19z"/><path transform="translate(61.894 19.992) scale(.014 -.014)" d="m225-19q-59 0-98 25t-58.5 67.5-19.5 94.5q0 58 21 120t61 114 98.5 84.5 135.5 32.5q47 0 79-14.5t48.5-40.5 16.5-63q0-41-24.5-74t-65.5-59.5-94.5-45-112-30.5-117.5-18l12 71q39 4 82 12t84 20 74 29 52 38 19 47-16.5 37.5-46.5 11.5q-51 0-91.5-25.5t-68-66-42-87-14.5-88.5q0-34 11-59.5t33-39 54-13.5 58 12.5 49 33 46 44.5q13 14 28 10.5t25-14.5q11-11 13-23.5t-11-27.5q-36-43-73-68.5t-73.5-36-73.5-10.5z"/><path transform="translate(73.458 19.992) scale(.014 -.014)" d="m-15-14q-26 0-34 15.5t7 37.5l620 936q14 23 29 31.5t39 8.5q19 0 30.5-9.5t12.5-41.5l44-933q2-20-9.5-32.5t-37.5-12.5q-22 0-29 8.5t-9 28.5l-12 262h-416l-170-259q-18-26-28.5-33t-36.5-7zm290 379h358l-24 509z"/><path transform="translate(85.12 19.992) scale(.014 -.014)" d="m336-19q-66 0-111 24t-68.5 70.5-22.5 112 27 148.5l208 652q5 14 16.5 20.5t35.5 6.5q23 0 34-7t6-23l-214-660q-21-66-24-114.5t10-80.5 41.5-48 69.5-16q43 0 88.5 15.5t92 46 94.5 77 96.5 108 96.5 138.5l172 537q5 14 17.5 20.5t34.5 6.5 32.5-8 5.5-22l-312-971q-4-14-17-21t-35-7-32 8.5-6 21.5l73 226q-48-63-97.5-112t-101-82-104-50-106.5-17z"/><path transform="translate(103.07 19.992) scale(.014 -.014)" d="m322-14q-19 0-30.5 10.5t-11.5 41.5l-24 932q-1 21 11 33t38 12q23 0 29.5-8t7.5-28l19-851 562 847q17 26 28.5 33t36.5 7q26 0 34-15.5t-7-36.5l-624-937q-16-22-30-31t-39-9z"/><path transform="translate(114.34 19.992) scale(.014 -.014)" d="m107-14q-23 0-33.5 7t-6.5 23l313 972q5 14 17.5 20.5t34.5 6.5q23 0 33-7t5-23l-313-971q-4-14-16-21t-34-7z"/><path transform="translate(119.59 19.992) scale(.014 -.014)" d="m467-19q-74 0-133 24t-100 70.5-63 113.5-22 151q0 69 16.5 145t49 152 80.5 143.5 112 120.5 143 83.5 174 30.5q63 0 113.5-14t89-40.5 65.5-66.5q8-11 3.5-19.5t-18.5-19.5q-13-10-22.5-11.5t-23.5 10.5q-25 26-56 42.5t-71 25-95 8.5q-69 0-130.5-25t-113.5-69.5-93-101.5-69.5-121.5-44-130.5-15.5-127q0-72 14.5-126t43.5-90 74-54.5 106-18.5q42 0 79.5 13t73 37 71.5 57.5 74 74.5q12 12 23.5 7.5t21.5-15.5q14-14 15-24t-10-24q-66-81-130.5-127t-123-65-108.5-19z"/></svg>

<?xml version="1.0" encoding="utf-8" ?>
<svg baseProfile="tiny" height="100%" version="1.2" width="100%" xmlns="http://www.w3.org/2000/svg" xmlns:ev="http://www.w3.org/2001/xml-events" xmlns:xlink="http://www.w3.org/1999/xlink"><defs /><g><path d="M107 -14Q59 -14 68 16L377 970Q382 984 394.0 991.0Q406 998 428 998H604Q704 998 770.5 974.0Q837 950 870.5 902.5Q904 855 904 782Q904 698 872.5 634.0Q841 570 782.5 525.0Q724 480 642.5 451.5Q561 423 461 410Q418 405 371.0 402.5Q324 400 281 399L156 14Q151 0 140.5 -7.0Q130 -14 107 -14ZM306 479Q333 479 364.0 480.5Q395 482 426.0 485.0Q457 488 485 491Q591 508 664.0 544.0Q737 580 775.5 636.5Q814 693 814 771Q814 823 790.5 855.5Q767 888 718.0 903.0Q669 918 590 918H448Z" transform="translate(0.0, 72) scale(0.072, -0.072)" /><path d="M129 -15Q71 -15 54.5 29.5Q38 74 65 157L336 983Q343 1003 352.5 1009.0Q362 1015 381 1015Q412 1015 420.5 1005.5Q429 996 422 976L137 108Q130 85 133.0 72.5Q136 60 150 60Q161 60 171.0 66.5Q181 73 192.0 85.0Q203 97 215 113Q223 123 231.5 125.0Q240 127 253 118Q269 108 271.5 98.0Q274 88 268 77Q251 48 229.0 27.0Q207 6 182.5 -4.5Q158 -15 129 -15Z" transform="translate(55.943999999999996, 72) scale(0.072, -0.072)" /><path d="M159 -17Q122 -17 94.5 1.5Q67 20 52.0 54.5Q37 89 37 135Q37 181 50.5 233.0Q64 285 91.5 335.5Q119 386 158.5 427.5Q198 469 250.0 494.0Q302 519 367 519Q397 519 429.0 510.5Q461 502 490 487L491 491Q497 507 506.5 511.0Q516 515 534 515Q565 515 573.5 505.5Q582 496 575 476L452 107Q447 91 446.0 80.5Q445 70 449.0 65.0Q453 60 462 60Q473 60 484.0 67.0Q495 74 506.5 86.0Q518 98 530 113Q538 123 546.5 125.0Q555 127 568 118Q584 108 586.5 98.0Q589 88 584 77Q575 62 555.5 39.5Q536 17 508.0 1.0Q480 -15 445 -15Q410 -15 392.0 -1.0Q374 13 368.5 34.5Q363 56 366.0 81.0Q369 106 375 129Q376 131 376.5 133.5Q377 136 378 139Q338 85 299.5 50.0Q261 15 225.5 -1.0Q190 -17 159 -17ZM128 150Q128 123 135.0 103.5Q142 84 155.5 73.5Q169 63 187 63Q221 63 263.0 95.5Q305 128 350.0 190.5Q395 253 442 342L467 418Q436 431 409.0 435.5Q382 440 358 440Q313 440 276.0 420.5Q239 401 211.5 368.5Q184 336 165.5 297.0Q147 258 137.5 219.5Q128 181 128 150Z" transform="translate(77.472, 72) scale(0.072, -0.072)" /><path d="M161 -15Q112 -15 84.5 8.0Q57 31 53.5 75.5Q50 120 70 182L170 483Q177 503 186.5 509.0Q196 515 215 515Q246 515 254.5 505.5Q263 496 256 476L152 165Q142 136 140.5 113.0Q139 90 151.0 77.0Q163 64 192 64Q224 64 261.5 89.0Q299 114 338.0 159.5Q377 205 414.5 266.5Q452 328 484 402L510 483Q517 503 526.5 509.0Q536 515 555 515Q586 515 594.5 505.5Q603 496 596 476L351 -275Q321 -366 288.0 -419.5Q255 -473 209.0 -496.0Q163 -519 94 -519Q57 -519 24.5 -509.5Q-8 -500 -33.5 -483.5Q-59 -467 -78 -448Q-92 -433 -96.0 -419.5Q-100 -406 -79 -390Q-61 -376 -50.0 -375.5Q-39 -375 -25 -390Q-2 -415 29.5 -428.0Q61 -441 99 -441Q143 -441 172.5 -424.5Q202 -408 224.0 -371.0Q246 -334 266 -272L405 159Q377 117 347.0 84.5Q317 52 286.0 30.0Q255 8 223.5 -3.5Q192 -15 161 -15Z" transform="translate(122.256, 72) scale(0.072, -0.072)" /><path d="M172 -19Q126 -19 100.0 0.0Q74 19 64.5 51.0Q55 83 59.0 122.5Q63 162 77 203L169 484Q174 500 183.0 508.0Q192 516 215 516Q247 516 254.5 506.5Q262 497 256 478L160 186Q150 154 146.0 125.5Q142 97 152.5 79.0Q163 61 196 61Q221 61 248.0 77.5Q275 94 300.0 122.5Q325 151 348.0 187.5Q371 224 388 264L459 484Q465 500 473.5 508.0Q482 516 504 516Q537 516 543.5 506.5Q550 497 544 478L461 212Q456 192 449.5 166.5Q443 141 443.0 116.5Q443 92 455.0 76.5Q467 61 498 61Q532 61 564.5 82.0Q597 103 624.5 138.0Q652 173 672.5 216.0Q693 259 704.5 304.5Q716 350 716 390Q716 401 715.5 413.5Q715 426 713.5 439.0Q712 452 710 465Q707 483 710.5 495.0Q714 507 724.0 513.0Q734 519 749 519Q768 519 779.0 508.0Q790 497 795 471Q798 460 799.5 448.5Q801 437 801.5 425.0Q802 413 802 400Q802 348 787.0 291.0Q772 234 743.5 179.0Q715 124 675.0 79.0Q635 34 585.5 7.5Q536 -19 478 -19Q433 -19 406.0 -2.5Q379 14 367.5 41.0Q356 68 354 100Q331 63 302.5 36.5Q274 10 241.5 -4.5Q209 -19 172 -19Z" transform="translate(167.47199999999998, 72) scale(0.072, -0.072)" /><path d="M81 -15Q65 -15 51.5 -8.0Q38 -1 44 18L172 413Q176 426 172.0 434.5Q168 443 156 443Q145 443 133.0 436.5Q121 430 105.5 414.5Q90 399 69 372Q57 359 47.5 356.0Q38 353 21 361Q2 372 3.0 384.5Q4 397 11 408Q33 439 56.5 464.0Q80 489 109.0 503.5Q138 518 174 518Q209 518 227.0 506.0Q245 494 251.0 475.0Q257 456 255.5 433.5Q254 411 250 391L234 343Q260 386 287.0 418.5Q314 451 340.0 473.5Q366 496 389.0 507.5Q412 519 432 519Q446 519 453.0 512.0Q460 505 459 481Q459 456 462.0 439.5Q465 423 472.0 414.5Q479 406 491 406Q513 406 540.0 419.5Q567 433 614 464Q624 471 634.5 466.5Q645 462 651.5 451.0Q658 440 658.5 427.5Q659 415 648 408Q603 372 564.0 354.5Q525 337 484 337Q463 337 442.5 345.5Q422 354 408.5 374.5Q395 395 394 431Q371 418 341.5 389.5Q312 361 280.5 319.5Q249 278 218.0 224.5Q187 171 161 108L129 11Q125 -2 114.5 -8.5Q104 -15 81 -15Z" transform="translate(229.10399999999998, 72) scale(0.072, -0.072)" /><path d="M127 -15Q68 -15 51.5 29.5Q35 74 62 157L169 483Q176 503 185.5 509.0Q195 515 214 515Q245 515 253.5 505.5Q262 496 255 476L135 108Q127 85 130.0 72.5Q133 60 147 60Q158 60 168.0 66.5Q178 73 189.0 85.0Q200 97 213 113Q221 123 229.5 125.0Q238 127 251 118Q267 108 269.5 98.0Q272 88 266 77Q248 48 226.5 27.0Q205 6 180.0 -4.5Q155 -15 127 -15ZM276 669Q256 669 242.0 682.0Q228 695 228 720Q228 747 245.5 771.0Q263 795 300 795Q321 795 335.0 782.5Q349 770 349 744Q349 717 331.5 693.0Q314 669 276 669Z" transform="translate(268.77599999999995, 72) scale(0.072, -0.072)" /><path d="M158 -15Q114 -15 91.0 5.5Q68 26 66.0 64.5Q64 103 81 156L167 420H90Q79 420 75.0 430.0Q71 440 76 460Q82 480 92.0 490.0Q102 500 113 500H193L258 698Q264 718 273.5 724.0Q283 730 303 730Q334 730 342.5 720.5Q351 711 344 691L281 500H407Q418 500 422.5 490.5Q427 481 421 460Q416 441 406.0 430.5Q396 420 385 420H255L158 126Q147 92 152.0 76.0Q157 60 176 60Q200 60 226.0 78.5Q252 97 277 129Q285 138 294.5 140.0Q304 142 319 132Q334 123 336.0 113.5Q338 104 333 95Q322 75 297.5 49.0Q273 23 238.5 4.0Q204 -15 158 -15Z" transform="translate(290.376, 72) scale(0.072, -0.072)" /><path d="M225 -19Q166 -19 127.0 6.0Q88 31 68.5 73.5Q49 116 49 168Q49 226 70.0 288.0Q91 350 131.0 402.0Q171 454 229.5 486.5Q288 519 365 519Q412 519 444.0 504.5Q476 490 492.5 464.0Q509 438 509 401Q509 360 484.5 327.0Q460 294 419.0 267.5Q378 241 324.5 222.5Q271 204 212.5 192.0Q154 180 95 174L107 245Q146 249 189.0 257.0Q232 265 273.0 277.0Q314 289 347.0 306.0Q380 323 399.0 344.0Q418 365 418 391Q418 417 401.5 428.5Q385 440 355 440Q304 440 263.5 414.5Q223 389 195.5 348.5Q168 308 153.5 261.5Q139 215 139 173Q139 139 150.0 113.5Q161 88 183.0 74.5Q205 61 237 61Q269 61 295.0 73.5Q321 86 344.0 106.5Q367 127 390 151Q403 165 418.0 161.5Q433 158 443 147Q454 136 456.0 123.5Q458 111 445 96Q409 53 372.0 27.5Q335 2 298.5 -8.5Q262 -19 225 -19Z" transform="translate(318.31199999999995, 72) scale(0.072, -0.072)" /><path d="M-15 -14Q-41 -14 -49.0 1.5Q-57 17 -42 39L578 975Q592 998 607.0 1006.5Q622 1015 646 1015Q665 1015 676.5 1005.5Q688 996 689 964L733 31Q735 11 723.5 -1.5Q712 -14 686 -14Q664 -14 657.0 -5.5Q650 3 648 23L636 285H220L50 26Q32 0 21.5 -7.0Q11 -14 -15 -14ZM275 365H633L609 874Z" transform="translate(377.784, 72) scale(0.072, -0.072)" /><path d="M336 -19Q270 -19 225.0 5.0Q180 29 156.5 75.5Q133 122 134.0 187.5Q135 253 161 336L369 988Q374 1002 385.5 1008.5Q397 1015 421 1015Q444 1015 455.0 1008.0Q466 1001 461 985L247 325Q226 259 223.0 210.5Q220 162 233.0 130.0Q246 98 274.5 82.0Q303 66 344 66Q387 66 432.5 81.5Q478 97 524.5 127.5Q571 158 619.0 204.5Q667 251 715.5 312.5Q764 374 812 451L984 988Q989 1002 1001.5 1008.5Q1014 1015 1036 1015Q1058 1015 1068.5 1007.0Q1079 999 1074 985L762 14Q758 0 745.0 -7.0Q732 -14 710 -14Q688 -14 678.0 -5.5Q668 3 672 16L745 242Q697 179 647.5 130.0Q598 81 546.5 48.0Q495 15 442.5 -2.0Q390 -19 336 -19Z" transform="translate(437.76, 72) scale(0.072, -0.072)" /><path d="M322 -14Q303 -14 291.5 -3.5Q280 7 280 38L256 970Q255 991 267.0 1003.0Q279 1015 305 1015Q328 1015 334.5 1007.0Q341 999 342 979L361 128L923 975Q940 1001 951.5 1008.0Q963 1015 988 1015Q1014 1015 1022.0 999.5Q1030 984 1015 963L391 26Q375 4 361.0 -5.0Q347 -14 322 -14Z" transform="translate(530.064, 72) scale(0.072, -0.072)" /><path d="M107 -14Q84 -14 73.5 -7.0Q63 0 67 16L380 988Q385 1002 397.5 1008.5Q410 1015 432 1015Q455 1015 465.0 1008.0Q475 1001 470 985L157 14Q153 0 141.0 -7.0Q129 -14 107 -14Z" transform="translate(588.024, 72) scale(0.072, -0.072)" /><path d="M467 -19Q393 -19 334.0 5.0Q275 29 234.0 75.5Q193 122 171.0 189.0Q149 256 149 340Q149 409 165.5 485.0Q182 561 214.5 637.0Q247 713 295.0 780.5Q343 848 407.0 901.0Q471 954 550.0 984.5Q629 1015 724 1015Q787 1015 837.5 1001.0Q888 987 926.5 960.5Q965 934 992 894Q1000 883 995.5 874.5Q991 866 977 855Q964 845 954.5 843.5Q945 842 931 854Q906 880 875.0 896.5Q844 913 804.0 921.5Q764 930 709 930Q640 930 578.5 905.0Q517 880 465.0 835.5Q413 791 372.0 734.0Q331 677 302.5 612.5Q274 548 258.5 482.0Q243 416 243 355Q243 283 257.5 229.0Q272 175 301.0 139.0Q330 103 375.0 84.5Q420 66 481 66Q523 66 560.5 79.0Q598 92 633.5 116.0Q669 140 705.0 173.5Q741 207 779 248Q791 260 802.5 255.5Q814 251 824 240Q838 226 839.0 216.0Q840 206 829 192Q763 111 698.5 65.0Q634 19 575.5 0.0Q517 -19 467 -19Z" transform="translate(615.024, 72) scale(0.072, -0.072)" /></g></svg>
